plate/svg/top.svg

<?xml version="1.0" encoding="UTF-8" standalone="no"?>
<svg
   xmlns:dc="http://purl.org/dc/elements/1.1/"
   xmlns:cc="http://creativecommons.org/ns#"
   xmlns:rdf="http://www.w3.org/1999/02/22-rdf-syntax-ns#"
   xmlns:svg="http://www.w3.org/2000/svg"
   xmlns="http://www.w3.org/2000/svg"
   xmlns:sodipodi="http://sodipodi.sourceforge.net/DTD/sodipodi-0.dtd"
   xmlns:inkscape="http://www.inkscape.org/namespaces/inkscape"
   width="325mm"
   height="76.700005mm"
   viewBox="0 0 325 76.700004"
   version="1.1"
   id="svg895"
   sodipodi:docname="top.svg"
   inkscape:version="1.0.1 (3bc2e813f5, 2020-09-07)">
  <metadata
     id="metadata901">
    <rdf:RDF>
      <cc:Work
         rdf:about="">
        <dc:format>image/svg+xml</dc:format>
        <dc:type
           rdf:resource="http://purl.org/dc/dcmitype/StillImage" />
        <dc:title></dc:title>
      </cc:Work>
    </rdf:RDF>
  </metadata>
  <defs
     id="defs899" />
  <sodipodi:namedview
     pagecolor="#ffffff"
     bordercolor="#666666"
     borderopacity="1"
     objecttolerance="10"
     gridtolerance="10"
     guidetolerance="10"
     inkscape:pageopacity="0"
     inkscape:pageshadow="2"
     inkscape:window-width="2560"
     inkscape:window-height="1377"
     id="namedview897"
     showgrid="false"
     inkscape:zoom="1"
     inkscape:cx="579.81744"
     inkscape:cy="187.10833"
     inkscape:window-x="1912"
     inkscape:window-y="-8"
     inkscape:window-maximized="1"
     inkscape:current-layer="Cut001"
     inkscape:document-units="mm"
     lock-margins="true"
     fit-margin-top="10"
     fit-margin-left="10"
     fit-margin-right="10"
     fit-margin-bottom="10" />
  <g
     id="Cut001"
     transform="matrix(1,0,0,-1,10.1,180.91)">
    <path
       id="Cut001_f0000"
       d="m 0,167 v -48.88 0 z"
       stroke="#191919"
       stroke-width="0.35 px"
       style="fill:#ffffff;fill-opacity:1;fill-rule:evenodd;stroke:#0000ff;stroke-width:0.2;stroke-miterlimit:4;stroke-dasharray:none;stroke-opacity:1" />
    <circle
       cx="300.98999"
       cy="167"
       r="1.1"
       stroke="#191919"
       stroke-width="0.35 px"
       style="fill:#ffffff;fill-opacity:1;stroke:#0000ff;stroke-width:0.2;stroke-miterlimit:4;stroke-dasharray:none;stroke-opacity:1"
       id="circle869" />
    <path
       id="Cut001_f0002"
       d="m 0,118.12 a 3.81,3.81 0 0 1 3.81,-3.81 v 0 A 3.81,3.81 0 0 0 0,118.12 Z"
       stroke="#191919"
       stroke-width="0.35 px"
       style="fill:#ffffff;fill-opacity:1;fill-rule:evenodd;stroke:#0000ff;stroke-width:0.2;stroke-miterlimit:4;stroke-dasharray:none;stroke-opacity:1" />
    <path
       id="Cut001_f0003"
       d="m 0,167 a 3.81,3.81 0 0 0 3.81,3.81 v 0 A 3.81,3.81 0 0 1 0,167 Z"
       stroke="#191919"
       stroke-width="0.35 px"
       style="fill:#ffffff;fill-opacity:1;fill-rule:evenodd;stroke:#0000ff;stroke-width:0.2;stroke-miterlimit:4;stroke-dasharray:none;stroke-opacity:1" />
    <circle
       cx="300.98999"
       cy="167"
       r="1.1"
       stroke="#191919"
       stroke-width="0.35 px"
       style="fill:#ffffff;fill-opacity:1;stroke:#0000ff;stroke-width:0.2;stroke-miterlimit:4;stroke-dasharray:none;stroke-opacity:1"
       id="circle873" />
    <path
       id="Cut001_f0005"
       d="M 300.99,114.31 H 3.81 v 0 z"
       stroke="#191919"
       stroke-width="0.35 px"
       style="fill:#ffffff;fill-opacity:1;fill-rule:evenodd;stroke:#0000ff;stroke-width:0.2;stroke-miterlimit:4;stroke-dasharray:none;stroke-opacity:1" />
    <path
       id="Cut001_f0006"
       d="M 300.99,170.81 H 3.81 v 0 z"
       stroke="#191919"
       stroke-width="0.35 px"
       style="fill:#ffffff;fill-opacity:1;fill-rule:evenodd;stroke:#0000ff;stroke-width:0.2;stroke-miterlimit:4;stroke-dasharray:none;stroke-opacity:1" />
    <path
       id="Cut001_f0007"
       d="m 304.8,118.12 a 3.81,3.81 0 0 0 -3.81,-3.81 v 0 a 3.81,3.81 0 0 1 3.81,3.81 z"
       stroke="#191919"
       stroke-width="0.35 px"
       style="fill:#ffffff;fill-opacity:1;fill-rule:evenodd;stroke:#0000ff;stroke-width:0.2;stroke-miterlimit:4;stroke-dasharray:none;stroke-opacity:1" />
    <path
       id="Cut001_f0008"
       d="m 304.8,167 a 3.81,3.81 0 0 1 -3.81,3.81 v 0 A 3.81,3.81 0 0 0 304.8,167 Z"
       stroke="#191919"
       stroke-width="0.35 px"
       style="fill:#ffffff;fill-opacity:1;fill-rule:evenodd;stroke:#0000ff;stroke-width:0.2;stroke-miterlimit:4;stroke-dasharray:none;stroke-opacity:1" />
    <path
       id="Cut001_f0009"
       d="m 304.8,167 v -48.88 0 z"
       stroke="#191919"
       stroke-width="0.35 px"
       style="fill:#ffffff;fill-opacity:1;fill-rule:evenodd;stroke:#0000ff;stroke-width:0.2;stroke-miterlimit:4;stroke-dasharray:none;stroke-opacity:1" />
    <circle
       cx="300.98999"
       cy="167"
       r="1.1"
       stroke="#191919"
       stroke-width="0.35 px"
       style="fill:#ffffff;fill-opacity:1;stroke:#0000ff;stroke-width:0.2;stroke-miterlimit:4;stroke-dasharray:none;stroke-opacity:1"
       id="circle880" />
    <circle
       cx="300.98999"
       cy="118.11"
       r="1.1"
       stroke="#191919"
       stroke-width="0.35 px"
       style="fill:#ffffff;fill-opacity:1;stroke:#0000ff;stroke-width:0.2;stroke-miterlimit:4;stroke-dasharray:none;stroke-opacity:1"
       id="circle882" />
    <circle
       cx="154.94"
       cy="118.11"
       r="1.1"
       stroke="#191919"
       stroke-width="0.35 px"
       style="fill:#ffffff;fill-opacity:1;stroke:#0000ff;stroke-width:0.2;stroke-miterlimit:4;stroke-dasharray:none;stroke-opacity:1"
       id="circle884" />
    <circle
       cx="154.94"
       cy="167"
       r="1.1"
       stroke="#191919"
       stroke-width="0.35 px"
       style="fill:#ffffff;fill-opacity:1;stroke:#0000ff;stroke-width:0.2;stroke-miterlimit:4;stroke-dasharray:none;stroke-opacity:1"
       id="circle886" />
    <circle
       cx="3.8099999"
       cy="118.11"
       r="1.1"
       stroke="#191919"
       stroke-width="0.35 px"
       style="fill:#ffffff;fill-opacity:1;stroke:#0000ff;stroke-width:0.2;stroke-miterlimit:4;stroke-dasharray:none;stroke-opacity:1"
       id="circle888" />
    <circle
       cx="3.8099999"
       cy="167"
       r="1.1"
       stroke="#191919"
       stroke-width="0.35 px"
       style="fill:#ffffff;fill-opacity:1;stroke:#0000ff;stroke-width:0.2;stroke-miterlimit:4;stroke-dasharray:none;stroke-opacity:1"
       id="circle890" />
    <title
       id="title892">b'Cut001'</title>
  </g>
</svg>

<?xml version="1.0"?>
<!DOCTYPE svg PUBLIC "-//W3C//DTD SVG 1.1//EN" "http://www.w3.org/Graphics/SVG/1.1/DTD/svg11.dtd">
<svg width="310.896mm" height="62.596000000000004mm" viewBox="0 0 310.896 62.596000000000004" xmlns="http://www.w3.org/2000/svg" version="1.1">
<g id="Cut001" transform="translate(3.048000,173.858000) scale(1,-1)">
<path id="Cut001_f0000"  d="M 0.0 167.0 L 0.0 118.12 L -4.4e-16 118.12 L 0.0 167.0 L 0.0 167.0 Z " stroke="#191919" stroke-width="0.35 px" style="stroke-width:0.35;stroke-miterlimit:4;stroke-dasharray:none;fill:#cccccc;fill-opacity:1.0;fill-rule: evenodd "/>
<circle cx="300.99" cy="167.0" r="1.1" stroke="#191919" stroke-width="0.35 px" style="stroke-width:0.35;stroke-miterlimit:4;stroke-dasharray:none;fill:#cccccc"/>
<path id="Cut001_f0002"  d="M 0.0 118.12 A 3.81 3.81 0 0 1 3.81 114.31L 3.809999999999999 114.31 A 3.81 3.81 0 0 0 -4.44089e-16 118.12L -4.4e-16 118.12 Z " stroke="#191919" stroke-width="0.35 px" style="stroke-width:0.35;stroke-miterlimit:4;stroke-dasharray:none;fill:#cccccc;fill-opacity:1.0;fill-rule: evenodd "/>
<path id="Cut001_f0003"  d="M 0.0 167.0 A 3.81 3.81 0 0 0 3.81 170.81L 3.809999999999999 170.81 A 3.81 3.81 0 0 1 -4.44089e-16 167L 0.0 167.0 Z " stroke="#191919" stroke-width="0.35 px" style="stroke-width:0.35;stroke-miterlimit:4;stroke-dasharray:none;fill:#cccccc;fill-opacity:1.0;fill-rule: evenodd "/>
<circle cx="300.99" cy="167.0" r="1.1" stroke="#191919" stroke-width="0.35 px" style="stroke-width:0.35;stroke-miterlimit:4;stroke-dasharray:none;fill:#cccccc"/>
<path id="Cut001_f0005"  d="M 300.99 114.31 L 3.809999999999999 114.31 L 3.809999999999999 114.31 L 300.99 114.31 L 300.99 114.31 Z " stroke="#191919" stroke-width="0.35 px" style="stroke-width:0.35;stroke-miterlimit:4;stroke-dasharray:none;fill:#cccccc;fill-opacity:1.0;fill-rule: evenodd "/>
<path id="Cut001_f0006"  d="M 300.99 170.81 L 3.809999999999999 170.81 L 3.809999999999999 170.81 L 300.99 170.81 L 300.99 170.81 Z " stroke="#191919" stroke-width="0.35 px" style="stroke-width:0.35;stroke-miterlimit:4;stroke-dasharray:none;fill:#cccccc;fill-opacity:1.0;fill-rule: evenodd "/>
<path id="Cut001_f0007"  d="M 304.8 118.12 A 3.81 3.81 0 0 0 300.99 114.31L 300.99 114.31 A 3.81 3.81 0 0 1 304.8 118.12L 304.8 118.12 Z " stroke="#191919" stroke-width="0.35 px" style="stroke-width:0.35;stroke-miterlimit:4;stroke-dasharray:none;fill:#cccccc;fill-opacity:1.0;fill-rule: evenodd "/>
<path id="Cut001_f0008"  d="M 304.8 167.0 A 3.81 3.81 0 0 1 300.99 170.81L 300.99 170.81 A 3.81 3.81 0 0 0 304.8 167L 304.8 167.0 Z " stroke="#191919" stroke-width="0.35 px" style="stroke-width:0.35;stroke-miterlimit:4;stroke-dasharray:none;fill:#cccccc;fill-opacity:1.0;fill-rule: evenodd "/>
<path id="Cut001_f0009"  d="M 304.8 167.0 L 304.8 118.12 L 304.8 118.12 L 304.8 167.0 L 304.8 167.0 Z " stroke="#191919" stroke-width="0.35 px" style="stroke-width:0.35;stroke-miterlimit:4;stroke-dasharray:none;fill:#cccccc;fill-opacity:1.0;fill-rule: evenodd "/>
<circle cx="300.99" cy="167.0" r="1.1" stroke="#191919" stroke-width="0.35 px" style="stroke-width:0.35;stroke-miterlimit:4;stroke-dasharray:none;fill:#cccccc"/>
<circle cx="300.99" cy="118.11" r="1.1" stroke="#191919" stroke-width="0.35 px" style="stroke-width:0.35;stroke-miterlimit:4;stroke-dasharray:none;fill:#cccccc"/>
<circle cx="154.94" cy="118.11" r="1.1" stroke="#191919" stroke-width="0.35 px" style="stroke-width:0.35;stroke-miterlimit:4;stroke-dasharray:none;fill:#cccccc"/>
<circle cx="154.94" cy="167.0" r="1.1" stroke="#191919" stroke-width="0.35 px" style="stroke-width:0.35;stroke-miterlimit:4;stroke-dasharray:none;fill:#cccccc"/>
<circle cx="3.81" cy="118.11" r="1.1" stroke="#191919" stroke-width="0.35 px" style="stroke-width:0.35;stroke-miterlimit:4;stroke-dasharray:none;fill:#cccccc"/>
<circle cx="3.81" cy="167.0" r="1.1" stroke="#191919" stroke-width="0.35 px" style="stroke-width:0.35;stroke-miterlimit:4;stroke-dasharray:none;fill:#cccccc"/>
<title>b'Cut001'</title>
</g>
</svg>
